X:1
T:Title
%%score ( 1 2 ) { 3 | 4 }
L:1/8
Q:1/4=100
M:4/4
K:Bb
V:1 treble nm="Grand Piano, Soprano"
V:2 treble 
V:3 bass nm="Choir Pad, Churdh of God, Awake"
V:4 bass 
V:1
 [DF]>[EG] [DF]>[_D=E] [=DF]2 [DF]2 | [Fd]3 [Ec] [DB]2 z2 | [EG]>[E^F] [EG]>[EA] [GB]2 AG | %3
w: By~Tullius~Clinton~O’Kane * * * * *|||
 [DF]6 z2 | [DF]>[EG] [DF]>[_D=E] [=DF]2 [DF]2 | [Fd]3 [Ec] [DB]2 z2 | %6
w: |||
 [FA]2 [GB]2 [Fc]>[FA] [=EG]>[EA] | F6 z2 | [Fc]2 [Fc]2 [Fc]>[FB] [Fc]>[Fd] | [Ae]4 [Ac]2 z2 | %10
w: ||||
 [Fd]2 [Fd]2 [Fd]>[Fc] [FB]>[Fd] | c2 d2 [Ae]2 z2 | [Fd]>[Ge] [Fd]>[Ec] [DB]2 F2 | [EA]2 [EG]4 z2 | %14
w: ||||
 [DF]>[DF] [D=E]>F [EG]2 [EA]2 | [DB]2 z2 z2 [DB]>[Ec] | [Fd]4- [Fd]>[Ge] [Fd]>[Ec] | %17
w: |||
 [DB]4 z2 [CA]>[DB] | [Ec]4- [Ec]>[DB] [Fe]>[Fd] | [Fc]4 z2 [FB]>[Fc] | %20
w: |||
 d4- [Fd]>[Ec] (3[DB][EA][FB] | [EG]4 z2 [EA]>[EB] | [DF]2 [_D=E][=DF] [_EG]2 [EA]2 | [DB]8 |] %24
w: ||||
V:2
 x8 | x8 | z4 z2 E2 | x8 | x8 | x8 | x8 | x8 | x8 | x8 | x8 | F4 z4 | x8 | x8 | x8 | x8 | x8 | x8 | %18
 x8 | x8 | D4 z4 | x8 | x8 | x8 |] %24
V:3
 B,>B, B,>B, B,2 B,2 | B,4 F,2 z2 | G,>A, B,>C B,2 CB, | B,6 z2 | B,>B, B,>B, B,2 B,2 | %5
 B,4 F,2 z2 | C2 C2 A,>C B,>C | B,6 z2 | A,2 A,2 A,>G, A,>B, | C4 C2 z2 | B,2 B,2 B,>A, B,>B, | %11
 A,2 B,2 C2 z2 | B,>B, B,>B, B,2 B,2 | C2 B,4 z2 | B,>B, B,>D C2 C2 | B,4 z4 | B,2 B,2 B,2 B,2 | %17
 F,2 F,2 F,2 z2 | A,2 A,2 A,2 C>B, | A,2 A,2 A,>C B,>A, | B,2 B,2 B,2 F,2 | B,2 B,2 B,2 C>C | %22
 B,2 B,2 B,2 C2 | B,8 |] %24
V:4
 B,,>B,, B,,>B,, B,,2 B,,2 | B,,4 B,,2 z2 | E,>E, E,>E, E,2 E,2 | B,,6 z2 | %4
 B,,>B,, B,,>B,, B,,2 B,,2 | B,,4 B,,2 z2 | C,2 C,2 C,>C, C,>C, | [F,,F,]6 z2 | %8
 F,2 F,2 F,>F, F,>F, | F,4 F,2 z2 | z4 z2 D,>B,, | F,6 z2 | B,,>B,, B,,>B,, B,,2 D,2 | E,2 E,4 z2 | %14
 F,>F, F,>F, F,2 F,2 | B,,4 z4 | B,,2 B,,2 B,,2 B,,2 | B,,2 B,,2 B,,2 z2 | F,2 F,2 F,2 F,2 | %19
 F,2 F,2 F,>E, D,>C, | B,,2 B,,2 B,,2 (3B,,C,D, | E,2 E,2 E,2 E,>E, | F,2 F,2 [F,,F,]2 [F,,F,]2 | %23
 [B,,F,]8 |] %24

